svg/SJJB-OpenStreetMapIcons/transport/turning_circle.svg

<?xml version="1.0" encoding="UTF-8" standalone="no"?>
<!-- Created with Inkscape (http://www.inkscape.org/) -->

<svg
   xmlns:dc="http://purl.org/dc/elements/1.1/"
   xmlns:cc="http://creativecommons.org/ns#"
   xmlns:rdf="http://www.w3.org/1999/02/22-rdf-syntax-ns#"
   xmlns:svg="http://www.w3.org/2000/svg"
   xmlns="http://www.w3.org/2000/svg"
   xmlns:sodipodi="http://sodipodi.sourceforge.net/DTD/sodipodi-0.dtd"
   xmlns:inkscape="http://www.inkscape.org/namespaces/inkscape"
   version="1.0"
   width="580"
   height="580"
   id="svg2"
   sodipodi:version="0.32"
   inkscape:version="0.47 r22583"
   sodipodi:docname="transport_turning_circle.svg"
   inkscape:output_extension="org.inkscape.output.svg.inkscape">
  <metadata
     id="metadata2975">
    <rdf:RDF>
      <cc:Work
         rdf:about="">
        <dc:format>image/svg+xml</dc:format>
        <dc:type
           rdf:resource="http://purl.org/dc/dcmitype/StillImage" />
        <cc:license
           rdf:resource="http://web.resource.org/cc/PublicDomain" />
        <dc:language>en</dc:language>
        <dc:title />
      </cc:Work>
    </rdf:RDF>
  </metadata>
  <sodipodi:namedview
     inkscape:window-height="973"
     inkscape:window-width="1280"
     inkscape:pageshadow="2"
     inkscape:pageopacity="0.0"
     guidetolerance="10.0"
     gridtolerance="10.0"
     objecttolerance="10.0"
     borderopacity="1.0"
     bordercolor="#666666"
     pagecolor="#ffffff"
     id="base"
     inkscape:zoom="0.32586207"
     inkscape:cx="106.87609"
     inkscape:cy="-6.7354186"
     inkscape:window-x="0"
     inkscape:window-y="0"
     inkscape:current-layer="svg2"
     showgrid="false"
     inkscape:window-maximized="1" />
  <defs
     id="defs4">
    <inkscape:perspective
       sodipodi:type="inkscape:persp3d"
       inkscape:vp_x="0 : 290 : 1"
       inkscape:vp_y="0 : 1000 : 0"
       inkscape:vp_z="580 : 290 : 1"
       inkscape:persp3d-origin="290 : 193.33333 : 1"
       id="perspective2441" />
    <inkscape:perspective
       id="perspective3452"
       inkscape:persp3d-origin="30 : 20 : 1"
       inkscape:vp_z="60 : 30 : 1"
       inkscape:vp_y="0 : 1000 : 0"
       inkscape:vp_x="0 : 30 : 1"
       sodipodi:type="inkscape:persp3d" />
    <symbol
       viewBox="244.5 110 489 219.9"
       id="symbol-university">
      <path
         id="path4460"
         d="M79,43l57,119c0,0,21-96,104-96s124,106,124,106l43-133l82-17L0,17L79,43z" />
      <path
         id="path4462"
         d="M94,176l-21,39"
         stroke-width="20"
         stroke="#000000"
         fill="none" />
      <path
         id="path4464"
         d="M300,19c0,10.5-22.6,19-50.5,19S199,29.5,199,19s22.6-19,50.5-19S300,8.5,300,19z" />
      <path
         id="path4466"
         d="M112,216l-16-38L64,88c0,0-9-8-4-35s16-24,16-24"
         stroke-width="20"
         stroke="#000000"
         ill="none" />
    </symbol>
    <inkscape:perspective
       id="perspective4471"
       inkscape:persp3d-origin="372.04724 : 350.78739 : 1"
       inkscape:vp_z="744.09448 : 526.18109 : 1"
       inkscape:vp_y="0 : 1000 : 0"
       inkscape:vp_x="0 : 526.18109 : 1"
       sodipodi:type="inkscape:persp3d" />
    <inkscape:perspective
       id="perspective4668"
       inkscape:persp3d-origin="6 : 4 : 1"
       inkscape:vp_z="12 : 6 : 1"
       inkscape:vp_y="0 : 1000 : 0"
       inkscape:vp_x="0 : 6 : 1"
       sodipodi:type="inkscape:persp3d" />
    <inkscape:perspective
       id="perspective4904"
       inkscape:persp3d-origin="16 : 10.666667 : 1"
       inkscape:vp_z="32 : 16 : 1"
       inkscape:vp_y="0 : 1000 : 0"
       inkscape:vp_x="0 : 16 : 1"
       sodipodi:type="inkscape:persp3d" />
  </defs>
  <g
     id="g1327">
    <path
       d="M 66.275,1.768 C 24.94,1.768 1.704,23.139 1.704,66.804 L 1.704,516.927 C 1.704,557.771 22.599,579.156 63.896,579.156 L 515.92,579.156 C 557.227,579.156 578.149,558.841 578.149,516.927 L 578.149,66.804 C 578.149,24.203 557.227,1.768 514.628,1.768 C 514.624,1.768 66.133,1.625 66.275,1.768 z "
       style="fill:#111;stroke:#eee;stroke-width:3.40799999"
       id="path1329" />
  </g>
  <g
     id="layer3"
     inkscape:label="Layout"
     style="display:none;stroke:#757575;stroke-opacity:1"
     transform="matrix(48.14969,0,0,48.14969,-536.27327,-33.306752)">
    <rect
       style="fill:none;stroke:#757575;stroke-width:0.10000000000000001;stroke-miterlimit:4;stroke-dasharray:none;stroke-opacity:1;display:inline"
       id="rect4134"
       width="10"
       height="10"
       x="1"
       y="1" />
    <rect
       style="fill:none;stroke:#757575;stroke-width:0.10000000000000001;stroke-miterlimit:4;stroke-dasharray:none;stroke-opacity:1;display:inline"
       id="rect4136"
       width="8"
       height="8"
       x="2"
       y="2" />
  </g>
  <path
     style="opacity:0.2;fill:#ffffff;fill-opacity:1;stroke:#ffffff;stroke-width:12.77865886999999923;stroke-linecap:round;stroke-linejoin:round;stroke-miterlimit:4;stroke-opacity:1"
     d="m 292.93639,126.60507 c -138.92248,0 -251.535355,38.0229 -251.535355,84.93686 0,37.95775 73.747745,70.08101 175.477935,80.97022 l -25.47378,0 -83.40842,195.96613 373.48196,0 -75.18403,-195.96613 -37.2645,0 c 101.73019,-10.88921 175.44154,-43.01247 175.44154,-80.97022 0,-46.91396 -112.61287,-84.93686 -251.53535,-84.93686 z"
     id="rect2911" />
  <path
     style="fill:none;stroke:#ffffff;stroke-width:23.29030991;stroke-linecap:round;stroke-linejoin:miter;stroke-miterlimit:4;stroke-opacity:1;stroke-dasharray:none"
     d="m 99.11857,502.63171 85.91627,-213.5272"
     id="path2921"
     sodipodi:nodetypes="cc" />
  <path
     style="font-size:medium;font-style:normal;font-variant:normal;font-weight:normal;font-stretch:normal;text-indent:0;text-align:start;text-decoration:none;line-height:normal;letter-spacing:normal;word-spacing:normal;text-transform:none;direction:ltr;block-progression:tb;writing-mode:lr-tb;text-anchor:start;color:#000000;fill:#ffffff;fill-opacity:1;stroke:none;stroke-width:24.86602974;marker:none;visibility:visible;display:inline;overflow:visible;enable-background:accumulate;font-family:Bitstream Charter;-inkscape-font-specification:Bitstream Charter"
     d="m 287.75,307.53125 12.84375,0 -2,-33.59375 -8.84375,0 -2,33.59375 z m -4,95.46875 20.84375,0 -2,-53.75 -16.84375,0 -2,53.75 z m -4,101.46875 28.84375,0 -2,-55.75 -24.84375,0 -2,55.75 z"
     id="path3697"
     sodipodi:nodetypes="ccccccccccccccc" />
  <path
     style="fill:none;stroke:#ffffff;stroke-width:18.63224792;stroke-linecap:round;stroke-linejoin:round;stroke-miterlimit:4;stroke-opacity:1;stroke-dasharray:none;stroke-dashoffset:0"
     d="M 186.82941,288.57691 C 100.93692,275.06185 41.402846,245.64773 41.402846,211.53793 c 0,-46.91395 112.618914,-84.94522 251.541404,-84.94522 138.92248,0 251.5414,38.03127 251.5414,84.94522 l 0,0 0,0 c 0,33.45753 -57.27896,62.39726 -140.52826,76.24629"
     id="path4585" />
  <path
     sodipodi:nodetypes="cc"
     id="path4580"
     d="M 494.1379,502.63171 408.22164,289.10451"
     style="fill:none;stroke:#ffffff;stroke-width:23.29030991;stroke-linecap:round;stroke-linejoin:miter;stroke-miterlimit:4;stroke-opacity:1;stroke-dasharray:none" />
</svg>

<svg xmlns="http://www.w3.org/2000/svg" viewBox="0 0 580 580"><path d="m66.28 1.768c-41.34 0-64.57 21.371-64.57 65.04v450.12c0 40.844 20.895 62.23 62.19 62.23h452.02c41.31 0 62.23-20.315 62.23-62.23v-450.12c0-42.601-20.922-65.04-63.52-65.04-.004 0-448.5-.143-448.35 0z" fill="#111" stroke="#eee" stroke-width="3.408"/><g stroke="#fff" stroke-linecap="round"><path d="m292.94 126.61c-138.92 0-251.54 38.02-251.54 84.937 0 37.958 73.75 70.08 175.48 80.97h-25.474l-83.41 195.97h373.48l-75.18-195.97h-37.26c101.73-10.889 175.44-43.01 175.44-80.97 0-46.914-112.61-84.937-251.54-84.937z" opacity=".2" fill="#fff" stroke-linejoin="round" stroke-width="12.779"/><path d="m99.12 502.63l85.92-213.53" fill="none" stroke-width="23.29"/></g><path d="m287.75 307.53h12.844l-2-33.594h-8.844l-2 33.594m-4 95.47h20.844l-2-53.75h-16.844l-2 53.75m-4 101.47h28.844l-2-55.75h-24.844l-2 55.75" color="#000" fill="#fff"/><g fill="none" stroke="#fff" stroke-linecap="round"><path d="m186.83 288.58c-85.89-13.515-145.43-42.929-145.43-77.04 0-46.914 112.62-84.945 251.54-84.945 138.92 0 251.54 38.03 251.54 84.945 0 33.458-57.28 62.4-140.53 76.25" stroke-linejoin="round" stroke-width="18.632"/><path d="m494.14 502.63l-85.92-213.53" stroke-width="23.29"/></g></svg>
